public/assets/icons/etherscan_od.svg

<svg fill="none" height="122" viewBox="0 0 122 122" width="122" xmlns="http://www.w3.org/2000/svg"><path d="m25.29 57.9139c.0001-.6792.1344-1.3516.3951-1.9787.2607-.6272.6427-1.1966 1.1241-1.6757.4815-.4791 1.0527-.8584 1.6811-1.1161.6284-.2576 1.3015-.3886 1.9807-.3855l8.59.028c1.3695 0 2.683.5441 3.6514 1.5125.9685.9685 1.5126 2.2819 1.5126 3.6515v32.48c.967-.287 2.209-.593 3.568-.913.944-.2217 1.7853-.7559 2.3875-1.516.6021-.76.9297-1.7013.9295-2.671v-40.29c0-1.3697.544-2.6832 1.5124-3.6518s2.2819-1.5129 3.6516-1.5132h8.607c1.3696.0003 2.6831.5446 3.6515 1.5132s1.5125 2.2821 1.5125 3.6518v37.393s2.155-.872 4.254-1.758c.7797-.3297 1.4451-.8818 1.9132-1.5872.4681-.7055.718-1.5332.7188-2.3798v-44.578c0-1.3694.5439-2.6827 1.5121-3.6511.9682-.9685 2.2814-1.5126 3.6508-1.5129h8.6071c1.3696 0 2.683.5441 3.6515 1.5125.9684.9684 1.5125 2.2819 1.5125 3.6515v36.709c7.462-5.408 15.024-11.912 21.025-19.733.871-1.1352 1.447-2.4682 1.677-3.8802.23-1.4119.107-2.8589-.358-4.2118-2.778-7.9922-7.193-15.3166-12.964-21.5043-5.771-6.1878-12.7701-11.10273-20.5495-14.43026-7.7794-3.32752-16.1678-4.9943783-24.6284-4.893901-8.4606.100478-16.807 1.966081-24.5051 5.477421-7.6982 3.51133-14.5786 8.59104-20.2009 14.91414-5.62229 6.3231-9.86268 13.7502-12.44979 21.8062-2.587103 8.0559-3.463959 16.5632-2.574459 24.9775.889499 8.4143 3.525779 16.5503 7.740109 23.8872.73415 1.2656 1.81422 2.2955 3.11334 2.9686 1.2991.6731 2.7633.9615 4.2207.8314 1.628-.143 3.655-.346 6.065-.629 1.0491-.1191 2.0177-.62 2.7212-1.4073.7036-.7872 1.0929-1.8058 1.0938-2.8617z" fill="#fff"/><path d="m25.1021 110.009c9.0723 6.6 19.7938 10.562 30.9781 11.447 11.1844.884 22.3955-1.342 32.3929-6.434s18.3909-12.85 24.2529-22.4161c5.861-9.5664 8.962-20.5678 8.959-31.7871 0-1.4-.065-2.7851-.158-4.1621-22.219 33.138-63.2439 48.6303-96.423 53.3473" fill="#8b8b8b"/></svg>

<svg width="122" height="122" viewBox="0 0 122 122" fill="none" xmlns="http://www.w3.org/2000/svg">
<path d="M25.29 57.9139C25.2901 57.2347 25.4244 56.5623 25.6851 55.9352C25.9458 55.308 26.3278 54.7386 26.8092 54.2595C27.2907 53.7804 27.8619 53.4011 28.4903 53.1434C29.1187 52.8858 29.7918 52.7548 30.471 52.7579L39.061 52.7859C40.4305 52.7859 41.744 53.33 42.7124 54.2984C43.6809 55.2669 44.225 56.5803 44.225 57.9499V90.4299C45.192 90.1429 46.434 89.8369 47.793 89.5169C48.737 89.2952 49.5783 88.761 50.1805 88.0009C50.7826 87.2409 51.1102 86.2996 51.11 85.3299V45.0399C51.11 43.6702 51.654 42.3567 52.6224 41.3881C53.5908 40.4195 54.9043 39.8752 56.274 39.8749H64.881C66.2506 39.8752 67.5641 40.4195 68.5325 41.3881C69.5009 42.3567 70.045 43.6702 70.045 45.0399V82.4329C70.045 82.4329 72.2 81.5609 74.299 80.6749C75.0787 80.3452 75.7441 79.7931 76.2122 79.0877C76.6803 78.3822 76.9302 77.5545 76.931 76.7079V32.1299C76.931 30.7605 77.4749 29.4472 78.4431 28.4788C79.4113 27.5103 80.7245 26.9662 82.0939 26.9659H90.701C92.0706 26.9659 93.384 27.51 94.3525 28.4784C95.3209 29.4468 95.865 30.7603 95.865 32.1299V68.8389C103.327 63.4309 110.889 56.9269 116.89 49.1059C117.761 47.9707 118.337 46.6377 118.567 45.2257C118.797 43.8138 118.674 42.3668 118.209 41.0139C115.431 33.0217 111.016 25.6973 105.245 19.5096C99.474 13.3218 92.4749 8.40687 84.6955 5.07934C76.9161 1.75182 68.5277 0.0849617 60.0671 0.185439C51.6065 0.285917 43.2601 2.15152 35.562 5.66286C27.8638 9.17419 20.9834 14.2539 15.3611 20.577C9.73881 26.9001 5.49842 34.3272 2.91131 42.3832C0.324207 50.4391 -0.552649 58.9464 0.336851 67.3607C1.22635 75.775 3.86263 83.911 8.07696 91.2479C8.81111 92.5135 9.89118 93.5434 11.1903 94.2165C12.4894 94.8896 13.9536 95.178 15.411 95.0479C17.039 94.9049 19.066 94.7019 21.476 94.4189C22.5251 94.2998 23.4937 93.7989 24.1972 93.0116C24.9008 92.2244 25.2901 91.2058 25.291 90.1499L25.29 57.9139Z" fill="white"/>
<path d="M25.1021 110.009C34.1744 116.609 44.8959 120.571 56.0802 121.456C67.2646 122.34 78.4757 120.114 88.4731 115.022C98.4705 109.93 106.864 102.172 112.726 92.6059C118.587 83.0395 121.688 72.0381 121.685 60.8188C121.685 59.4188 121.62 58.0337 121.527 56.6567C99.308 89.7947 58.2831 105.287 25.104 110.004" fill="#8B8B8B"/>
</svg>
